calendar-plus-outline.svg

<svg  viewBox="0 0 24 24" fill="currentColor"><path  d="M13 13H16V15H13V18H11V15H8V13H11V10H13V13M21 5V19C21 20.11 20.11 21 19 21H5C3.89 21 3 20.1 3 19V5C3 3.89 3.89 3 5 3H6V1H8V3H16V1H18V3H19C20.11 3 21 3.9 21 5M5 5V7H19V5H5M19 19V9H5V19H19Z"/></svg>

<svg fill="currentColor" viewBox="0 0 24 24"><path d="M13 13h3v2h-3v3h-2v-3H8v-2h3v-3h2zm8-8v14c0 1.11-.89 2-2 2H5a2 2 0 0 1-2-2V5c0-1.11.89-2 2-2h1V1h2v2h8V1h2v2h1a2 2 0 0 1 2 2M5 5v2h14V5zm14 14V9H5v10z"/></svg>
